X:1
T:Title
%%score [ 1 2 3 4 ]
L:1/8
Q:1/4=120
M:6/8
K:D
V:1 treble nm="MusicXML Part"
V:2 treble nm="MusicXML Part"
V:3 treble-8 nm="MusicXML Part"
V:4 bass nm="MusicXML Part"
V:1
"^Gartenlieder (1846)""^Morgengruß   Op. 3, No. 4""^Allegretto" A | fed cde | %2
w: 1. Schnell|flie- hen die Schat- ten der|
w: 2. Was|fehlt noch dem gol- de- nen|
 A3- A2"^Fanny Hensel (1805-1847)""^Text: Wilhelm Hensel (1794-1861)" A | fed cde | A3- A2 A | %5
w: Nacht, * hell|blüh- en die Mat- ten in|Pracht, * schnell|
w: Raum? * Komm|Lieb- chen, er- fül- le den|Traum, * komm|
 A3 d2 d | (d2 e) c2 A | A3 e2 e | ((e2 f) d2) f | fed dc^B | ^B3 c2 e | edc cB^A | ^A3 B2 c | %13
w: flie- hen die|Schat * ten, hell|blüh- en die|Mat * ten. Hoch|rau- schet der Wald in dem|Glan- ze, hoch|rau- schet der Wald in dem|Glan- ze, still|
w: Lieb- chen, er-|fül * le, er-|fül- le den|Traum. * * Mein|Lied tönt in won- ni- gem|Rau- schen, mein|Lied tönt in won- ni- gem|Rau- schen, o|
 c3 c2 c | (cfd) c2 c | c3 c2 c | (cfd) c2 B | A3 A2 A | d3 d2 d | (^d6 | f2 e) d2 B | A3- Ade | %22
w: lau- schet ihm|heim * * lich, ihm|heim- lich die|Pflan * * ze. In|glit- zern- den,|blit- zen- den|Gau|* * en, wie|se * lig, den|
w: komm, wie die|Blu * * me zu|lau- schen, zu|lau * * schen. Es|will dich mein|be- ben- des|Seh|* * nen be-|tau * en mit|
 f3- fdB | (B3 c3) | d3 z2 d | (d2 ^d e2 f | g2 e) d2 B | A3- Adf | (f3- f2 e) | d3 z3 | z3 z3 | %31
w: Mor * gen zu|schau *|en, wie|se * * *|* * lig, den|Mor * gen zu|schau * *|en,||
w: se * lig- en|Trä *|nen, be-|tau * * *|* * en mit|se * lig- en|Trä * *|nen,||
 z2 d dcd | gfe edc | c6 | d3 z2 |] %35
w: wie se- lig, wie|se- lig, den Mor- gen zu|schau-|en.|
w: mit se- lig- en|Trä- nen be- tau- en, be-|tau-|en.|
V:2
 F | AGF EFG | FED (CE)G | FGF EFG | FED (CE)G | F3 F2 F | (F2 G) E2 G | G3 G2 G | F3- F2 ^G | %9
w: 1. Schnell|flie- hen die Schat- ten, die|Schat- ten der Nacht, * hell|blüh- en die Mat- ten, die|Mat- ten in Pracht, * schnell|flie- hen die|Schat * ten, hell|blüh- en die|Mat- ten. Hoch|
w: 2. Was|fehlt noch dem gol- de- nen|Raum? Komm Lieb- chen, * er-|fül- le den Traum, komm Lieb-|chen, er- fül le, * er-|fül- le den|Traum. * Mein Lied|tönt in won-|ni- * gem|
 ^G3 G2 G | (^G3 A2) =G | G3 G2 G | G3 F2 ^E | F3 ^E2 E | (F2 A) ^G2 ^E | F3 ^E2 E | %16
w: rau- schet der|Wald, * der|Wald, in dem|Glan- ze, still|lau- schet ihm|heim * lich, ihm|heim- lich die|
w: Rau- schen, mein|Lied tönt in|won- ni- gem|Rau- schen, o|komm, wie die|Blu * me zu|lau- schen, zu|
 (F2 A) ^G2 ^E | F3 F2 F | A3 A2 A | (F2 A G2 F | G3) E2 E | F3- FFF | F3 F2 F | (F3 E3) | %24
w: Pflan * ze. In|glit- zern- den,|blit- zen- den|Gau * * *|* en, wie|se * lig, den|Mor- gen zu|schau *|
w: lau * schen. Es|will dich mein|be- ben- des|Seh * * *|* nen be-|tau * en mit|se lig- en|Trä *|
 D3 z2 F | G6- | G3 E2 E | F3- FFF | (A3 G3) | F2 A A^GA | BA^G BAG | ^G3 A3 | G6 | G6 | F3 z2 |] %35
w: en, wie|se|* lig, den|Mor * gen zu|schau *|en, wie se- lig, wie|se- lig, den Mor- gen zu|schau- en,|zu|schau-|en.|
w: nen, be-|tau|* en mit|se * lig- en|Trä *|nen, mit se- lig- en|Trä- nen be- tau- en, be-|tau- en.|2. Was|fehlt|noch|
V:3
 A | A3 A2 A | dcB (AB)c | d3 A2 A | dcB (AB)c | d3 d2 d | d3 A2 c | c3 A2 c | (^A3 B2) d | %9
w: 1. Schnell|flie- hen die|Schat- ten der Nacht, * hell|blüh- en die|Mat- ten in Pracht, * schnell|flie- hen die|Schat- ten, hell|blüh- en die|Mat- ten. Hoch|
w: 2. Was|fehlt noch dem|gol- de- nen Raum? * Komm|Lieb- chen, er-|fül- le den Traum, * komm|Lieb- chen, er-|fül le, er-|fül- le den|Traum. * Mein|
 dcB fed | d3 c2 c | cB^A edc | c3 d2 ^G | A3 B2 B | c3 c2 B | A3 B2 B | c3 c2 c | c3 c2 c | %18
w: rau- schet der Wald in dem|Glan- ze, hoch|rau- schet der Wald in dem|Glan- ze, still|lau- schet ihm|heim- lich, ihm|heim- lich die|Pflan- ze. In|glit- zern- den,|
w: Lied tönt in won- ni- gem|Rau- schen, mein|Lied tönt in won- ni- gem|Rau- schen, o|komm, wie die|Blu me zu|lau- schen, zu|lau schen. Es|will dich mein|
 =c3 c2 c | (B2 =c B2 A | B3) B2 d | d3- ddd | d3 d2 d | (d3 ^A3) | B3 z2 =c | B6- | B3 d2 d | %27
w: blit- zen- den|Gau * * *|* en, wie|se * lig, den|Mor- gen zu|schau *|en, wie|se|* lig, den|
w: be- ben- des|Seh * * *|* nen be-|tau * en mit|se lig- en|Trä *|nen, be-|tau|* en mit|
 d3- ddd | (B3 c3) | d2 f f^ef | gf^e gfe | ^e3 f3 | e6 | e6 | d3 z2 |] %35
w: Mor * gen zu|schau *|en, wie se- lig, wie|se- lig, den Mor- gen zu|schau- en,|zu|schau-|en.|
w: se * lig- en|Trä *|nen, mit se- lig- en|Trä- nen be- tau- en, be-|tau- en.|2. Was|fehlt|noch|
V:4
 D, | D,3 D,2 D, | D,3 D,2 D, | D,3 D,2 D, | D,3 D,2 D, | D,D,E, F,G,^G, | (A,3 A,,2) A, | %7
w: 1. Schnell|flieh- en die|Schat- ten, hell|blüh- en die|Mat- ten, schnell|flie- hen die Schat- ten der|Nacht, * hell|
w: 2. Was|fehlt noch dem|gol- de- nen|Raum? Komm Lieb-|chen, * er-|fül- le den Traum, komm Lieb-|chen, * er-|
 A,A,,B,, C,D,E, | (F,3 B,,2) E, | E,3 E,2 E, | (E,3 E,2) E, | E,3 E,2 E, | D,3 D,2 C, | %13
w: blüh- en die Mat- ten in|Pracht. * Hoch|rau- schet der|Wald, * der|Wald, in dem|Glan- ze, still|
w: fül le, er- fül- le den|Traum. * Mein|Lied tönt in|won- ni- gem|Rau- schen, mein|Lied tönt in|
 F,C,F, ^G,C,G, | (A,^G, F, ^E,)^D,C, | F,C,F, ^G,C,G, | (A,^G, F, ^E,)^D,C, | F,3 F,2 F, | %18
w: lau- schet ihm heim- lich die|Pflan * * * ze, still|lau- schet ihm heim- lich die|Pflan * * * ze. In|glit- zern- den,|
w: won- ni- gem Rau- schen, o|komm, * * * wie die|Blu me zu lau- schen, zu|lau * * * schen. Es|will dich mein|
 F,3 F,2 F, | B,,6 |"^Hensel: Morgengruß  -  Seite 2" E,3 G,3 | A,3- A,A,A, | ^A,3 B,2 B, | F,6 | %24
w: blit- zen- den|Gau-|en, wie|se * lig, den|Mor- gen zu|schau-|
w: be- ben- des|Seh|nen be-|tau * en mit|se lig- en|Trä|
 B,,3 z2 A, | G,6- | G,3 G,2 G, | A,3- A,A,A, | A,,6 | D,3 z2 D | D3 D2 D | D,6 | D,3- D,2 D, | %33
w: en, wie|se|* lig, den|Mor * gen zu|schau-|en, wie|se- lig, den|Mor-|gen * zu|
w: nen, be-|tau|* en mit|se * lig- en|Trä|nen, mit|se- lig- en|Trä-|nen * be-|
 D,6 |"^Hensel: Morgengruß  -  Seite 3" D,3 z2 |] %35
w: schau-|en.|
w: tau-|en,|

